src/svg/uf233-server.svg

<!-- Generated by IcoMoon.io -->
<svg version="1.1" xmlns="http://www.w3.org/2000/svg" width="32" height="32" viewBox="0 0 32 32">
<path d="M2.286 25.143h18.286v-2.286h-18.286v2.286zM2.286 16h18.286v-2.286h-18.286v2.286zM30.286 24c0-0.946-0.768-1.714-1.714-1.714s-1.714 0.768-1.714 1.714 0.768 1.714 1.714 1.714 1.714-0.768 1.714-1.714zM2.286 6.857h18.286v-2.286h-18.286v2.286zM30.286 14.857c0-0.946-0.768-1.714-1.714-1.714s-1.714 0.768-1.714 1.714 0.768 1.714 1.714 1.714 1.714-0.768 1.714-1.714zM30.286 5.714c0-0.946-0.768-1.714-1.714-1.714s-1.714 0.768-1.714 1.714 0.768 1.714 1.714 1.714 1.714-0.768 1.714-1.714zM32 20.571v6.857h-32v-6.857h32zM32 11.429v6.857h-32v-6.857h32zM32 2.286v6.857h-32v-6.857h32z"></path>
</svg>

<svg xmlns="http://www.w3.org/2000/svg" width="32" height="32"><path d="M2.286 25.143h18.286v-2.286H2.286v2.286zm0-9.143h18.286v-2.286H2.286V16zm28 8a1.715 1.715 0 1 0-3.43.002 1.715 1.715 0 0 0 3.43-.002zm-28-17.143h18.286V4.571H2.286v2.286zm28 8a1.715 1.715 0 1 0-3.43.002 1.715 1.715 0 0 0 3.43-.002zm0-9.143a1.715 1.715 0 1 0-3.43.002 1.715 1.715 0 0 0 3.43-.002zM32 20.571v6.857H0v-6.857h32zm0-9.142v6.857H0v-6.857h32zm0-9.143v6.857H0V2.286h32z"/></svg>
